icons/Heart.svg

<svg width="24" height="24" viewBox="0 0 24 24" fill="none" xmlns="http://www.w3.org/2000/svg">
<path fill-rule="evenodd" clip-rule="evenodd" d="M4.90395,5.80891c-0.81447,0.8717 -1.40392,2.22594 -1.40392,4.12859c0,2.6136 1.88845,4.9987 4.06457,6.8025c1.06807,0.8853 2.16127,1.5931 3.0301,2.0774c0.4346,0.2423 0.8057,0.4245 1.0828,0.5437c0.1394,0.0599 0.2465,0.1002 0.321,0.1242c0.0005,0.0001 0.001,0.0003 0.0015,0.0005c0.0005,-0.0002 0.0011,-0.0004 0.0016,-0.0005c0.0744,-0.024 0.1816,-0.0643 0.3209,-0.1242c0.2771,-0.1192 0.6483,-0.3014 1.0829,-0.5437c0.8688,-0.4843 1.962,-1.1921 3.0301,-2.0774c2.1761,-1.8038 4.0645,-4.1889 4.0645,-6.8025c0,-1.90265 -0.5894,-3.25689 -1.4039,-4.12859c-0.8179,-0.87536 -1.9023,-1.30891 -2.985,-1.30891c-1.1308,0 -2.0352,0.33997 -2.659,0.68135c-0.3117,0.17062 -0.5504,0.34008 -0.7078,0.4637c-0.0786,0.06168 -0.1364,0.11152 -0.1723,0.14377c-0.018,0.01611 -0.0305,0.02778 -0.0373,0.03429l-0.0058,0.00557l0.0009,-0.00091l0.0007,-0.00066v-0.00001c-0.0006,0.00058 -0.0012,0.00116 -0.0018,0.00173c-0.1404,0.13963 -0.3305,0.21805 -0.5287,0.21805c-0.1981,0 -0.3882,-0.07842 -0.5287,-0.21805c-0.0003,-0.00035 -0.0007,-0.0007 -0.001,-0.00104l0.0009,0.00089l-0.0058,-0.00557c-0.0069,-0.00651 -0.0193,-0.01818 -0.0373,-0.03429c-0.036,-0.03225 -0.0938,-0.08209 -0.1723,-0.14377c-0.1574,-0.12362 -0.3961,-0.29308 -0.7079,-0.4637c-0.62373,-0.34138 -1.52818,-0.68135 -2.65898,-0.68135c-1.08264,0 -2.16708,0.43355 -2.98497,1.30891zM11.4703,5.82779v-0.00002l-0.0002,-0.00013c0.0001,0.00005 0.0001,0.0001 0.0002,0.00015zM3.80792,4.78484c1.10919,-1.18714 2.59419,-1.78484 4.081,-1.78484c1.43861,0 2.58968,0.43347 3.37918,0.86553c0.2934,0.16056 0.5384,0.32177 0.7319,0.46228c0.1935,-0.14051 0.4386,-0.30172 0.732,-0.46228c0.7894,-0.43206 1.9405,-0.86553 3.3791,-0.86553c1.4869,0 2.9719,0.5977 4.0811,1.78484c1.1126,1.1908 1.8078,2.93031 1.8078,5.15266c0,3.3161 -2.3511,6.0872 -4.6073,7.9573c-1.1481,0.9516 -2.3192,1.7101 -3.257,2.2328c-0.4687,0.2613 -0.8865,0.4678 -1.2206,0.6115c-0.1663,0.0715 -0.3204,0.1311 -0.4548,0.1743c-0.1091,0.0351 -0.2849,0.0866 -0.4603,0.0866c-0.1753,0 -0.3511,-0.0515 -0.4602,-0.0866c-0.1345,-0.0432 -0.2885,-0.1028 -0.4548,-0.1743c-0.3341,-0.1437 -0.7519,-0.3502 -1.22063,-0.6115c-0.9378,-0.5227 -2.10893,-1.2812 -3.25701,-2.2328c-2.25618,-1.8701 -4.60733,-4.6412 -4.60733,-7.9573c0,-2.22235 0.69528,-3.96186 1.80789,-5.15266z" fill="#002B51"/>
</svg>

<svg width="24" height="24" viewBox="0 0 24 24" fill="none" xmlns="http://www.w3.org/2000/svg">
<path fill-rule="evenodd" clip-rule="evenodd" d="M4.90395 5.80891C4.08948 6.68061 3.50003 8.03485 3.50003 9.9375C3.50003 12.5511 5.38848 14.9362 7.5646 16.74C8.63267 17.6253 9.72587 18.3331 10.5947 18.8174C11.0293 19.0597 11.4004 19.2419 11.6775 19.3611C11.8169 19.421 11.924 19.4613 11.9985 19.4853C11.999 19.4854 11.9995 19.4856 12 19.4858C12.0005 19.4856 12.0011 19.4854 12.0016 19.4853C12.076 19.4613 12.1832 19.421 12.3225 19.3611C12.5996 19.2419 12.9708 19.0597 13.4054 18.8174C14.2742 18.3331 15.3674 17.6253 16.4355 16.74C18.6116 14.9362 20.5 12.5511 20.5 9.9375C20.5 8.03485 19.9106 6.68061 19.0961 5.80891C18.2782 4.93355 17.1938 4.5 16.1111 4.5C14.9803 4.5 14.0759 4.83997 13.4521 5.18135C13.1404 5.35197 12.9017 5.52143 12.7443 5.64505C12.6657 5.70673 12.6079 5.75657 12.572 5.78882C12.554 5.80493 12.5415 5.8166 12.5347 5.82311L12.5289 5.82868L12.5298 5.82777L12.5305 5.82711L12.5305 5.8271C12.5299 5.82768 12.5293 5.82826 12.5287 5.82883C12.3883 5.96846 12.1982 6.04688 12 6.04688C11.8019 6.04688 11.6118 5.96846 11.4713 5.82883C11.471 5.82848 11.4706 5.82813 11.4703 5.82779L11.4712 5.82868L11.4654 5.82311C11.4585 5.8166 11.4461 5.80493 11.4281 5.78882C11.3921 5.75657 11.3343 5.70673 11.2558 5.64505C11.0984 5.52143 10.8597 5.35197 10.5479 5.18135C9.92417 4.83997 9.01972 4.5 7.88892 4.5C6.80628 4.5 5.72184 4.93355 4.90395 5.80891ZM11.4703 5.82779L11.4703 5.82777L11.4701 5.82764C11.4702 5.82769 11.4702 5.82774 11.4703 5.82779ZM3.80792 4.78484C4.91711 3.5977 6.40211 3 7.88892 3C9.32753 3 10.4786 3.43347 11.2681 3.86553C11.5615 4.02609 11.8065 4.1873 12 4.32781C12.1935 4.1873 12.4386 4.02609 12.732 3.86553C13.5214 3.43347 14.6725 3 16.1111 3C17.598 3 19.083 3.5977 20.1922 4.78484C21.3048 5.97564 22 7.71515 22 9.9375C22 13.2536 19.6489 16.0247 17.3927 17.8948C16.2446 18.8464 15.0735 19.6049 14.1357 20.1276C13.667 20.3889 13.2492 20.5954 12.9151 20.7391C12.7488 20.8106 12.5947 20.8702 12.4603 20.9134C12.3512 20.9485 12.1754 21 12 21C11.8247 21 11.6489 20.9485 11.5398 20.9134C11.4053 20.8702 11.2513 20.8106 11.085 20.7391C10.7509 20.5954 10.3331 20.3889 9.86437 20.1276C8.92657 19.6049 7.75544 18.8464 6.60736 17.8948C4.35118 16.0247 2.00003 13.2536 2.00003 9.9375C2.00003 7.71515 2.69531 5.97564 3.80792 4.78484Z" fill="#002B51"/>
</svg>
